X:1
T:Yezu azali awa
T:Yézu azali awa
%%score [ 1 2 3 4 ]
L:1/8
Q:1/4=80
M:4/4
K:F
V:1 treble nm="Soprano"
V:2 treble nm="Alto"
V:3 treble-8 nm="Tenor"
V:4 bass nm="Bass"
V:1
 F G |: A A A A A2 G F | G F F D C2 F G | A A A A G2 A G |1 F6 F G :|2 F6 z2 || A A2 A (A2 GF) | %7
w: Yé- zu|a- za- li a- wa, Yé- zu|a- za- li a- wa, Yé- zu|a- za- li a- wa na bi-|so Yé- zu|so|Al- lé- lu- ia, _ _|
 G F2 D C4 | A A2 A A2 B A | G8 | A A2 A (A2 GF) | G F2 D C4 | A A2 A G2 A G | F8 |] %14
w: Al- lé- lu- ia,|Al- lé- lu- ia na Yé-|zu|Al- lé- lu- ia, _ _|Al- lé- lu- ia,|Al- lé- lu- ia na Yé-|zu|
V:2
 F F |: F F F F F2 F F | F F F F F2 F F | F F F F F2 E E |1 C6 F F :|2 C6 z2 || F F2 F F4 | %7
w: Yé- zu|a- za- li a- wa, Yé- zu|a- za- li a- wa, Yé- zu|a- za- li a- wa na bi-|so Yé- zu|so|Al- lé- lu- ia,|
 F F2 F F4 | F F2 F F2 F F | E8 | F F2 F F4 | F F2 F F4 | F F2 F E2 E E | C8 |] %14
w: Al- lé- lu- ia,|Al- lé- lu- ia na Yé-|zu|Al- lé- lu- ia,|Al- lé- lu- ia,|Al- lé- lu- ia na Yé-|zu|
V:3
 A B |: c c c c c2 c c | d d d B A2 A B | c c c c B2 c B |1 A6 A B :|2 A6 z2 || c c2 c c4 | %7
w: Yé- zu|a- za- li a- wa, Yé- zu|a- za- li a- wa, Yé- zu|a- za- li a- wa na bi-|so Yé- zu|so|Al- lé- lu- ia,|
 d d2 B A4 | c c2 c c2 d c | c8 | c c2 c c4 | d d2 B A4 | c c2 c B2 c B | A8 |] %14
w: Al- lé- lu- ia,|Al- lé- lu- ia na Yé-|zu|Al- lé- lu- ia,|Al- lé- lu- ia,|Al- lé- lu- ia na Yé-|zu|
V:4
 F, F, |: F, F, F, F, F,2 F, F, | B,, B,, B,, B,, F,2 F, F, | F, F, F, F, C,2 C, C, |1 %4
w: Yé- zu|a- za- li a- wa, Yé- zu|a- za- li a- wa, Yé- zu|a- za- li a- wa na bi-|
 F,6 F, F, :|2 F,6 z2 || F, F,2 F, F,4 | %7
w: so Yé- zu|so|Al- lé- lu- ia,|
"_\nJesus lever. Han er oppstanden. Halleluja." B,, B,,2 B,, F,4 | F, F,2 F, F,2 F, F, | C,8 | %10
w: Al- lé- lu- ia,|Al- lé- lu- ia na Yé-|zu|
 F, F,2 F, F,4 | B,, B,,2 B,, F,4 | F, F,2 F, C,2 C, C, | F,8 |] %14
w: Al- lé- lu- ia,|Al- lé- lu- ia,|Al- lé- lu- ia na Yé-|zu|

